!!!!SEGMENT: pl-kk--kk-i-2--036_anonim--omnes-sancti-dei.krn
!!!cenid: 16xx:1656
!!!COM: Anonim
!!!COM-rismID: pe30004985
!!!CDT:
!!!CNT:
!!!OTL: Omnes sancti Dei
!!!PDT:
!!!AGN: Sacred
!!!SMS-siglum: PL-Kk
!!!SMS-shelfmark: Kk.I.2
!!!SMS-shelfwork: 036 W
!!!NIFC-rismSourceID: 300258054
!!!NIFC-islandoraID: pl-kk:750
!!!URL-pdf-islandora: https://repozytorium.nifc.pl/islandora/object/pl-kk%3A750/datastream/PDF/view
!!!URL-scan: https://polish.musicsources.pl/pl/lokalizacje/galeria/rekopisy/5828 @EN{Scan on Polish Music Sources Website} @PL{Skany w portalu Dziedzictwo Muzyki Polskiej w otwartym dostępie}
!!!ONB-nifc: skany: C: 0059; A: 0162; T: 0263-0264; B: 0361-0362;
!!!AIN: 1 alto 1 bass 1 soprn 1 tenor
!!!key: d:dor
**kern	**text	**kern	**text	**kern	**text	**kern	**text
*part4	*part4	*part3	*part3	*part2	*part2	*part1	*part1
*staff4	*staff4	*staff3	*staff3	*staff2	*staff2	*staff1	*staff1
*I"BASVS	*	*I"TENOR	*	*I"ALTVS	*	*I"DISCANTVS	*
*I'B	*	*I'T	*	*I'A	*	*I'S	*
*Ibass	*	*Itenor	*	*Ialto	*	*Isoprn	*
*ICvox	*	*ICvox	*	*ICvox	*	*ICvox	*
*clefF4	*	*clefC4	*	*clefC4	*	*clefC1	*
*k[b-]	*	*k[]	*	*k[]	*	*k[]	*
*d:dor	*	*d:dor	*	*d:dor	*	*d:dor	*
*M2/1	*	*M2/1	*	*M2/1	*	*M2/1	*
*met(C|)	*	*met(C|)	*	*met(C|)	*	*met(C|)	*
*all\right	*	*	*	*all\right	*	*all\right	*
=1-	=1-	=1-	=1-	=1-	=1-	=1-	=1-
1C	Om-	1C	Om-	1c	Om-	1r	.
1FF	-nes	1F	-neſ	1.A	-nes	1c	Om-
=2-	=2-	=2-	=2-	=2-	=2-	=2-	=2-
2F/	San-	1F	San-	.	.	2f/	-nes
2D/	.	.	.	2B/	.	1f	ſan-
1C	-cti	1G	-cti	1c	.	.	.
.	.	.	.	.	.	2e/	-cti
=3-	=3-	=3-	=3-	=3-	=3-	=3-	=3-
2BB-/	.	1B-X	.	1d	San-	1f	.
2D/	.	.	.	.	.	.	.
1C	.	1G	.	1e	-cti	1g	.
=4-	=4-	=4-	=4-	=4-	=4-	=4-	=4-
2AA/	.	1F	.	2r	.	0a	.
*	*	*	*	*2\right	*	*	*
2.D/	.	.	.	2.f\	.	.	.
.	.	1F	.	.	.	.	.
4E/	.	.	.	4e\	.	.	.
2F/	.	.	.	4c\	.	.	.
.	.	.	.	4d\	.	.	.
=5-	=5-	=5-	=5-	=5-	=5-	=5-	=5-
2.E/	.	1G	.	1e	.	1r	.
4F/	.	.	.	.	.	.	.
1.G	.	1Bny	.	00d	.	1g	.
=6-	=6-	=6-	=6-	=6-	=6-	=6-	=6-
.	.	1B	.	.	.	2.g/	.
1.GG	.	.	.	.	.	.	.
.	.	.	.	.	.	4a/	.
.	.	1G	.	.	.	2.b/	.
.	.	.	.	.	.	4a/	.
=7-	=7-	=7-	=7-	=7-	=7-	=7-	=7-
0GG	.	1B	.	.	.	4g/	.
.	.	.	.	.	.	4f/	.
.	.	.	.	.	.	1.g	.
.	.	1B	.	1d	.	.	.
=8-	=8-	=8-	=8-	=8-	=8-	=8-	=8-
1D	.	1F	.	1d	.	1a	.
2.C/	.	1G	.	1e	.	1b	.
*custos:GG	*	*	*	*	*	*	*
4BB-/	.	.	.	.	.	.	.
!LO:LB:g=original	!	!	!	!	!	!	!
=9-	=9-	=9-	=9-	=9-	=9-	=9-	=9-
0.GG	.	1B	.	1d	.	1.g	.
*	*	*custos:G	*	*	*	*	*
.	.	1G	.	0D	.	.	.
.	.	.	.	.	.	2.b/	.
!	!	!LO:LB:g=original	!	!	!	!	!
=10-	=10-	=10-	=10-	=10-	=10-	=10-	=10-
.	.	1G	.	.	.	.	.
.	.	.	.	.	.	4a/	.
.	.	.	.	.	.	4g/	.
.	.	.	.	.	.	4f/	.
1D	.	1F	.	2r	.	1a	.
.	.	.	.	2.D/	.	.	.
=11-	=11-	=11-	=11-	=11-	=11-	=11-	=11-
*	*	*	*	*	*	*custos:a	*
1D	.	1A	.	.	.	1f	.
.	.	.	.	4E/	.	.	.
.	.	.	.	4F/	.	.	.
.	.	.	.	4G/	.	.	.
*2\right	*	*	*	*	*	*	*
*	*	*	*	*custos:D	*	*	*
!	!	!	!	!	!	!LO:LB:g=original	!
2.F\	.	1r	.	1A	.	1a	.
4G\	.	.	.	.	.	.	.
!	!	!	!	!LO:LB:g=original	!	!	!
=12-	=12-	=12-	=12-	=12-	=12-	=12-	=12-
2A\	.	1D	.	1D	.	1d	.
2.Bny\	.	.	.	.	.	.	.
.	.	1E	.	1r	.	2r	.
4A\	.	.	.	.	.	.	.
4G\	.	.	.	.	.	1b\	.
4F\	.	.	.	.	.	.	.
=13-	=13-	=13-	=13-	=13-	=13-	=13-	=13-
1E	.	1G	.	1r	.	.	.
*	*	*	*	*	*	*2\right	*
.	.	.	.	.	.	2g\	.
1D	.	1F	.	1.d	.	1a	.
=14-	=14-	=14-	=14-	=14-	=14-	=14-	=14-
2BB-/	.	1G	.	.	.	2g/	.
2C/	.	.	.	2e\	.	1g	.
2BB-/	.	1B	.	1d	.	.	.
2D/	.	.	.	.	.	2f/	.
=15-	=15-	=15-	=15-	=15-	=15-	=15-	=15-
1C	.	1G	.	1e	.	1g	.
1r	.	1G	.	1d	.	4d/	.
.	.	.	.	.	.	4e/	.
.	.	.	.	.	.	4f/	.
.	.	.	.	.	.	4g/	.
=16-	=16-	=16-	=16-	=16-	=16-	=16-	=16-
1D	.	1F	.	1D	.	1a	.
1C	.	1A	.	1E	.	4g/	.
.	.	.	.	.	.	4f/	.
.	.	.	.	.	.	4e/	.
.	.	.	.	.	.	4d/	.
=17-	=17-	=17-	=17-	=17-	=17-	=17-	=17-
*custos:G	*	*	*	*	*	*	*
0AA	.	0Al	.	0El	.	0cl	.
!LO:PB:g=original	!	!	!	!	!	!	!
=18||	=18||	=18||	=18||	=18||	=18||	=18||	=18||
1G	An-	1G	Ar-	1d	Ar-	0r	.
2F/	-ge-	1A	-chan-	1d	-chan-	.	.
4E/	.	.	.	.	.	.	.
4D/	.	.	.	.	.	.	.
=19-	=19-	=19-	=19-	=19-	=19-	=19-	=19-
2C/	-li	1c	-ge-	1e	-ge-	1g	Ar-
2C/	Ar-	.	.	.	.	.	.
1C	-chan-	1c	-li	2.e\	-li	2a/	-chan-
.	.	.	.	.	.	1cc\	-ge-
.	.	.	.	4f\	.	.	.
=20-	=20-	=20-	=20-	=20-	=20-	=20-	=20-
1GG	-ge-	1d	an-	2.g\	An-	.	.
.	.	.	.	.	.	2b/	.
.	.	.	.	4f\	.	.	.
1C	-li	1c	-ge-	1e	-ge-	1cc	-li
=21-	=21-	=21-	=21-	=21-	=21-	=21-	=21-
2r	.	1B	-li	1d	-li	1dd	An-
2G/	Vos	.	.	.	.	.	.
2F/	de-	1A	vos	0r	.	2.cc\	-ge-
1F\	-cet	.	.	.	.	.	.
*	*	*	*	*	*	*custos:a	*
.	.	.	.	.	.	4b/	.
!	!	!	!	!	!	!LO:LB:g=original	!
=22-	=22-	=22-	=22-	=22-	=22-	=22-	=22-
*	*	*custos:c	*	*	*	*	*
.	.	1c	de-	.	.	2a/	.
2E/	la-	.	.	.	.	2g/	.
!	!	!LO:LB:g=original	!	!	!	!	!
2F/	-us	1c	-cet.	2r	.	1a	-li
2A\	.	.	.	2c/	vos	.	.
=23-	=23-	=23-	=23-	=23-	=23-	=23-	=23-
2G/	.	1B	la-	1d	de-	1b	vos
2GG/	.	.	.	.	.	.	.
1AA	.	1A	-vs	2c/	-cet	1cc	de-
.	.	.	.	2A/	laus	.	.
=24-	=24-	=24-	=24-	=24-	=24-	=24-	=24-
2.E/	et	1G	et	1B	.	4b\	-cet
.	.	.	.	.	.	4a/	.
.	.	.	.	.	.	4g/	.
4D/	.	.	.	.	.	4f/	.
*	*	*lig	*	*	*	*	*
*	*	*	*	*custos:e	*	*	*
2C/	.	1A	ho-	1c	et	2e/	.
2AA/	ho-	.	.	.	.	1a\	lans
*	*	*	*	*clefC3	*	*	*
!	!	!	!	!LO:LB:g=original	!	!	!
=25-	=25-	=25-	=25-	=25-	=25-	=25-	=25-
1E	-no-	1B	.	1e	ho-	.	.
.	.	.	.	.	.	2g/	et
*	*	*Xlig	*	*	*	*	*
*	*	*lig	*	*	*	*	*
1AA	.	1c	-ne-	1e	-no-	2a/	ho-
.	.	.	.	.	.	1a/	-no-
=26-	=26-	=26-	=26-	=26-	=26-	=26-	=26-
1E	.	1B	.	0el	-res	.	.
.	.	.	.	.	.	2g/	.
*	*	*Xlig	*	*	*	*	*
*custos:D	*	*	*	*	*	*	*
1AAl	-res	1Al	-res	.	.	1al	-res
!LO:LB:g=original	!	!	!	!	!	!	!
=27||	=27||	=27||	=27||	=27||	=27||	=27||	=27||
*	*	*	*	*	*	*lig	*
1.D	Qvos	1d	Qvos	0A	Qvos	1d	Qvos
.	.	1d	in	.	.	1a	.
4C/	.	.	.	.	.	.	.
4BB-/	.	.	.	.	.	.	.
*	*	*	*	*	*	*Xlig	*
=28-	=28-	=28-	=28-	=28-	=28-	=28-	=28-
*	*	*	*	*lig	*	*	*
1AA	in	1e	de-	1A	in	1cc	in
1AA	de-	1c	-i	1e	.	1a	de-
*	*	*	*	*Xlig	*	*	*
=29-	=29-	=29-	=29-	=29-	=29-	=29-	=29-
1E	-i	1B	lav-	1r	.	1g	-i
2AA/	lau-	2A/	-di-	2r	.	1cc	lau-
1C/	-di-	4G/	.	1E/	de-	.	.
.	.	4F/	.	.	.	.	.
=30-	=30-	=30-	=30-	=30-	=30-	=30-	=30-
.	.	1.c	-bus	.	.	1a	-di-
2D/	-bus	.	.	2F/	-i	.	.
1E	fir-	.	.	1G	lav-	1g	-b(us)
.	.	4B/	.	.	.	.	.
.	.	4c/	.	.	.	.	.
=31-	=31-	=31-	=31-	=31-	=31-	=31-	=31-
1D	-ma-	1d	.	1A	-di-	1f	fir-
*	*	*	*	*	*	*custos:a	*
2E/	.	2G/	fir-	2r	.	1g	-ma-
2G\	-vit	2B/	-ma-	2d/	-bus	.	.
!	!	!	!	!	!	!LO:LB:g=original	!
=32-	=32-	=32-	=32-	=32-	=32-	=32-	=32-
2F\	.	1.A	-vit	2f\	fir-	1a	-vit
1A	cha-	.	.	2f\	-ma-	.	.
.	.	.	.	2e\	-vit	1cc	cha-
4G\	.	2c/	cha-	2c/	cha-	.	.
4F\	.	.	.	.	.	.	.
=33-	=33-	=33-	=33-	=33-	=33-	=33-	=33-
*	*	*	*	*	*	*lig	*
1E	-ri-	1B	-ri-	1e	-ri-	1g	-ri-
*	*	*custos:G	*	*	*	*	*
[1AAl	-tas	[1Al	-tas	[1el	-tas	1a	.
*	*	*	*	*	*	*Xlig	*
=34-	=34-	=34-	=34-	=34-	=34-	=34-	=34-
0AA]	.	0A]	.	0e]	.	0al	-tas
!	!	!LO:PB:g=original	!	!	!	!	!
=35||	=35||	=35||	=35||	=35||	=35||	=35||	=35||
1C	Et	1G	Et	1G	Et	1e	Et
1AA	Spi-	1c	Spi-	2.A/	ſpi-	1e	Spi-
.	.	.	.	4G/	.	.	.
=36-	=36-	=36-	=36-	=36-	=36-	=36-	=36-
1C	-ri-	2G/	-ri-	2E/	.	2e/	-ri-
.	.	1c	-ta-	1G	-ri-	1e	-ta-
1D	-ta-	.	.	.	.	.	.
*	*	*	*	*custos:G	*	*	*
.	.	2B/	-les	2F/	-ta-	2d/	-les
!	!	!	!	!LO:LB:g=original	!	!	!
=37-	=37-	=37-	=37-	=37-	=37-	=37-	=37-
1C	-les	4c/	.	1G	-les	2.e/	pra-
.	.	4d/	.	.	.	.	.
.	.	2.e/	pra-	.	.	.	.
.	.	.	.	.	.	4f/	-vi-
*	*	*	*	*lig	*	*	*
1E	pra-	.	.	1G	pra-	1g	-ta-
.	.	4d/	.	.	.	.	.
*	*	*2\right	*	*	*	*	*
.	.	2e\	-vi-	.	.	.	.
=38-	=38-	=38-	=38-	=38-	=38-	=38-	=38-
*custos:E	*	*	*	*	*	*	*
1D	-vi-	1f	-ta-	1d	.	1a	-tes
*	*	*	*	*Xlig	*	*	*
!LO:LB:g=original	!	!	!	!	!	!	!
1E	-ta-	1e	-tes	1B	-vi-	1g	veſ-
=39-	=39-	=39-	=39-	=39-	=39-	=39-	=39-
*	*	*	*	*	*	*lig	*
1C	-tes	2r	.	2c/	-ta-	1e	-tro
.	.	1c	veſ-	1G	-tes	.	.
1D	veſ-	.	.	.	.	1f	.
.	.	2B/	-tro	2F/	veſ-	.	.
*	*	*	*	*	*	*Xlig	*
=40-	=40-	=40-	=40-	=40-	=40-	=40-	=40-
*lig	*	*	*	*	*	*	*
1C	-tro	2c/	iv-	2G/	-tro	2e/	iv-
.	.	1A	-va-	1E	jv-	2c/	-va-
1BB-	.	.	.	.	.	1d	-mi-
.	.	2G/	-mi-	2D/	-va-	.	.
*Xlig	*	*	*	*	*	*	*
=41-	=41-	=41-	=41-	=41-	=41-	=41-	=41-
1AA	iv-	1A	-ne	1.E	-mi-	1c	-ne
1C	-na-	1G	v-	.	.	1r	.
.	.	.	.	2C/	-ne	.	.
=42-	=42-	=42-	=42-	=42-	=42-	=42-	=42-
1AA	-mi-	1F	-ni-	1C	V-	1cc	Vin-
1GG	-ne	1G	-cen-	2D/	-ni-	1b	-cen-
.	.	.	.	2E/	-cen-	.	.
=43-	=43-	=43-	=43-	=43-	=43-	=43-	=43-
1FF	vni-	1A	-tes	1F	-tes	1a	-tes
*	*	*	*	*	*	*custos:a	*
1GG	-cen-	1G	for-	2D/	.	1b	for-
.	.	.	.	2d/	for-	.	.
!	!	!	!	!	!	!LO:LB:g=original	!
=44-	=44-	=44-	=44-	=44-	=44-	=44-	=44-
1AA	-tes	1E	.	0c	.	2a/	-ti-
.	.	.	.	.	.	4g/	.
.	.	.	.	.	.	4f/	.
*	*	*custos:D	*	*	*	*	*
1C	for-	1E	.	.	.	2e/	.
.	.	.	.	.	.	2f/	.
!	!	!LO:LB:g=original	!	!	!	!	!
=45-	=45-	=45-	=45-	=45-	=45-	=45-	=45-
1GG	-ti-	2D/	.	1B	-ti-	4g/	.
.	.	.	.	.	.	4f/	.
.	.	2G/	-ti-	.	.	4e/	.
.	.	.	.	.	.	4d/	.
[1AAl	-fer.	[1El	-ter	[1Al	-ter	1c	.
=46-	=46-	=46-	=46-	=46-	=46-	=46-	=46-
0AA]	.	0E]	.	0A]	.	0cl	-ter
=47||	=47||	=47||	=47||	=47||	=47||	=47||	=47||
2.AA/	Vos	1c	Vos	1A	Vos	2a/	Vos
.	.	.	.	.	.	4g/	.
4BB-/	.	.	.	.	.	4f/	.
2.C/	pat-	1c	pat-	1G	.	2.e/	pa-
4D/	.	.	.	.	.	4f/	.
=48-	=48-	=48-	=48-	=48-	=48-	=48-	=48-
2E/	-ri-	1c	-ri-	2r	.	2g/	-tri-
2F/	-ar-	.	.	1F	pat-	2.a/	-ar-
4E/	.	1c	-ar-	.	.	.	.
4D/	.	.	.	.	.	4g/	.
2C/	-che.	.	.	2G/	-riar-	4f/	.
.	.	.	.	.	.	4e/	-che
=49-	=49-	=49-	=49-	=49-	=49-	=49-	=49-
2D/	pro-	1A	-che	1F	-che	2f/	pro-
4C/	.	.	.	.	.	4e/	.
*custos:AA	*	*	*	*	*	*	*
4BB-/	.	.	.	.	.	4d/	.
!LO:LB:g=original	!	!	!	!	!	!	!
1AA	-phe-	1c	pro-	2r	.	2e/	-phe-
*	*	*	*	*custos:B	*	*	*
.	.	.	.	2A/	pro-	2c/	-te
*	*	*	*	*clefC4	*	*	*
!	!	!	!	!LO:LB:g=original	!	!	!
=50-	=50-	=50-	=50-	=50-	=50-	=50-	=50-
1GG	-te	1d	-phe-	2.B\	-phe-	1g	a-
.	.	.	.	4c\	.	.	.
2GG/	ap-	1B	-te	1d	-te	1g	-p(o-
2G\	-poſ-	.	.	.	.	.	.
=51-	=51-	=51-	=51-	=51-	=51-	=51-	=51-
1C	-to-	1c	ap-	1e	Ap-	2a/	-sto)-
.	.	.	.	.	.	1g	.
1D	.	1A	-po-	0d	-po-	.	.
*	*	*	*	*	*	*custos:g	*
.	.	.	.	.	.	2f/	-li
!	!	!	!	!	!	!LO:LB:g=original	!
=52-	=52-	=52-	=52-	=52-	=52-	=52-	=52-
1GG	-li	1G	-ſto-	.	.	1g	con-
0r	.	1F	-li	2f\	-ſto-	2a/	-feſ-
.	.	.	.	4e\	.	4g/	.
.	.	.	.	4d\	.	4f/	.
=53-	=53-	=53-	=53-	=53-	=53-	=53-	=53-
.	.	1A	con-	2c\	-li	1e	-ſo-
.	.	.	.	2d\	co(n)-	.	.
1C	con-	1c	-feſ-	1e	-feſ-	2a/	-res
.	.	.	.	.	.	1g/	mar-
=54-	=54-	=54-	=54-	=54-	=54-	=54-	=54-
1D	-feſ-	1A	-ſo-	1d	-ſo-	.	.
.	.	.	.	.	.	2f/	-ti-
2GG/	-ſo-	1G	-res	1B	-res	1g	-res
2G\	-res	.	.	.	.	.	.
=55-	=55-	=55-	=55-	=55-	=55-	=55-	=55-
1C	mar-	1c	mar-	1e	mar-	0r	.
1D	-ti-	1A	-ti-	1d	-ti-	.	.
=56-	=56-	=56-	=56-	=56-	=56-	=56-	=56-
*	*	*custos:F	*	*	*	*	*
1.GG	-res	1G	-res	1B	-res	1r	.
!	!	!LO:LB:g=original	!	!	!	!	!
.	.	1F	Mo-	1A	mo-	1cc	mo-
2AA/	Mo-	.	.	.	.	.	.
=57-	=57-	=57-	=57-	=57-	=57-	=57-	=57-
1BB-	-na-	1G	-na-	1D	-na-	1b	-na-
1AA	-chi	1A	-chi	1E	-chi	2cc/	-chi
.	.	.	.	.	.	2.a/	vir-
=58-	=58-	=58-	=58-	=58-	=58-	=58-	=58-
1AA	vir-	1c	vir-	1A	vir-	.	.
.	.	.	.	.	.	4g/	.
.	.	.	.	.	.	2e/	-gi-
1BB-	-gi-	1G	-gi-	1D	-gi-	4g/	.
.	.	.	.	.	.	4f/	.
.	.	.	.	.	.	4e/	.
.	.	.	.	.	.	4d/	.
=59-	=59-	=59-	=59-	=59-	=59-	=59-	=59-
*custos:D	*	*	*	*	*	*	*
0AAl	-nes	0Al	-nes	0El;	-nes	0cl	-nes
!LO:LB:g=original	!	!	!	!	!	!	!
=60||	=60||	=60||	=60||	=60||	=60||	=60||	=60||
*	*	*lig	*	*	*	*	*
0D	Nos	1D	Nos	0d	Nos	0f	Nos
.	.	1A	.	.	.	.	.
*	*	*Xlig	*	*	*	*	*
=61-	=61-	=61-	=61-	=61-	=61-	=61-	=61-
1GG	ad-	1G	ad-	1d	ad-	2g/	ad-
.	.	.	.	.	.	4f/	.
.	.	.	.	.	.	4e/	.
1GG	-iv-	1B-y	-iv-	1d	-iv-	2d/	-iv-
.	.	.	.	.	.	2d/	-to-
=62-	=62-	=62-	=62-	=62-	=62-	=62-	=62-
*	*	*	*	*custos:D	*	*	*
1BB-	-to-	1G	-to-	1D	-to-	0d	-ri-
!	!	!	!	!LO:LB:g=original	!	!	!
1BB-	-ri-	1F	-ri-	1D	-ri-	.	.
=63-	=63-	=63-	=63-	=63-	=63-	=63-	=63-
*	*	*	*	*	*	*custos:f	*
1AA	-um	1A	-vm	1E	-um	1c	-vm
*	*	*lig	*	*	*	*	*
!	!	!	!	!	!	!LO:LB:g=original	!
0D	Nunc	1D	Nu(n)c	0d	Nu(n)c	0f	Nunc
=64-	=64-	=64-	=64-	=64-	=64-	=64-	=64-
.	.	1A	.	.	.	.	.
*	*	*Xlig	*	*	*	*	*
1GG	et	1G	et	1d	et	2g/	et
.	.	.	.	.	.	4f/	.
.	.	.	.	.	.	4e/	.
=65-	=65-	=65-	=65-	=65-	=65-	=65-	=65-
1GG	per-	1Bny	pe-	1d	pe-	2d/	pe-
.	.	.	.	.	.	2d/	-ren-
1BB-	-ren-	1G	-ren-	1D	-ren-	0d	-(n)i-
=66-	=66-	=66-	=66-	=66-	=66-	=66-	=66-
1BB-	-ni-	1F	-ni-	1D	-ni-	.	.
*	*	*custos:c	*	*	*	*	*
1AAl	-ter	1Al	-ter.	1El	-ter	1cl;	-ter
!	!	!LO:LB:g=original	!	!	!	!	!
=67||	=67||	=67||	=67||	=67||	=67||	=67||	=67||
1C	fo-	1c	Fo-	1e	fo-	1g	Fo-
1D	-ve-	1A	-ve-	1d	-ve-	1f	-ve-
=68-	=68-	=68-	=68-	=68-	=68-	=68-	=68-
1GG	-at.	1G	-at	1B	-at.	1g	-at.
1D	.	1A	pro-	1r	.	2f/	.
.	.	.	.	.	.	1d/	.
=69-	=69-	=69-	=69-	=69-	=69-	=69-	=69-
1E	.	1G	-te-	2r	.	.	.
.	.	.	.	1A	.	2B/	.
2D/	.	1F	-gat	.	.	2c/	.
2.A\	.	.	.	2D/	.	2.f/	.
=70-	=70-	=70-	=70-	=70-	=70-	=70-	=70-
.	.	1F	vt	1d	.	.	.
4G/	.	.	.	.	.	4e/	.
2A/	.	.	.	.	.	2f/	.
*custos:F	*	*	*	*	*	*	*
*	*	*lig	*	*	*	*	*
1G	.	1E	veſ-	2B/	.	1g	.
.	.	.	.	1c\	.	.	.
!LO:PB:g=original	!	!	!	!	!	!	!
=71-	=71-	=71-	=71-	=71-	=71-	=71-	=71-
2F/	.	1F	.	.	.	2a\	.
2.D/	.	.	.	2d\	.	2.f/	.
*	*	*Xlig	*	*	*	*	*
.	.	1D	-tru(m)	2D/	.	.	.
4C/	.	.	.	.	.	4e/	.
4BB-/	.	.	.	2.F/	.	4d/	.
4AA/	.	.	.	.	.	4c/	.
=72-	=72-	=72-	=72-	=72-	=72-	=72-	=72-
1BB-	.	1D	in	.	.	1d	.
.	.	.	.	4E/	.	.	.
*	*	*	*	*custos:A	*	*	*
.	.	.	.	2D/	.	.	.
!	!	!	!	!LO:LB:g=original	!	!	!
*	*	*	*	*col	*	*	*
1FF	.	1F	di-	1.A	.	1c	.
=73-	=73-	=73-	=73-	=73-	=73-	=73-	=73-
*	*	*	*	*	*	*custos:cc	*
1BB-	.	1F	-e	.	.	2r	.
!	!	!	!	!	!	!LO:LB:g=original	!
.	.	.	.	4G/	.	2.cc\	.
.	.	.	.	4F/	.	.	.
*	*	*	*	*Xcol	*	*	*
1AA	.	1A	poſ-	1E	.	.	.
.	.	.	.	.	.	4b\	.
.	.	.	.	.	.	2cc\	.
=74-	=74-	=74-	=74-	=74-	=74-	=74-	=74-
1r	.	1G	-ci-	1B	.	4dd\	.
.	.	.	.	.	.	4cc\	.
.	.	.	.	.	.	4b\	.
.	.	.	.	.	.	4a/	.
2r	.	1E	-mus	0c	.	1g	.
2C/	.	.	.	.	.	.	.
=75-	=75-	=75-	=75-	=75-	=75-	=75-	=75-
2FF/	.	1F	.	.	.	1a	.
2AA/	.	.	.	.	.	.	.
1GG	.	1G	gav-	1B	.	2.d/	.
.	.	.	.	.	.	4e/	.
=76-	=76-	=76-	=76-	=76-	=76-	=76-	=76-
1D	.	1F	-di-	2A/	.	1f	.
.	.	.	.	2B\	.	.	.
1C	.	1E	-o-	1c	.	1g	.
=77-	=77-	=77-	=77-	=77-	=77-	=77-	=77-
1D	.	1D	-ru(m)	2A/	.	1f	.
.	.	.	.	2B/	.	.	.
1C	.	1E	v(est)-	1c	.	1g	.
=78-	=78-	=78-	=78-	=78-	=78-	=78-	=78-
1D	.	1F	-ro-	1A	.	2f/	.
.	.	.	.	.	.	1d	.
1AA	.	1E	.	[1Al	.	.	.
.	.	.	.	.	.	2c/	.
=79-	=79-	=79-	=79-	=79-	=79-	=79-	=79-
0Dl	.	0Dl	-rum	0A]	.	0dl	.
==	==	==	==	==	==	==	==
*-	*-	*-	*-	*-	*-	*-	*-
!!!system-decoration: [(*)]
!!!RDF**kern: < = below
!!!RDF**kern: l = terminal long
!!!ENC: Filip Voros
!!!END: 2022-01-15
!!!ENC: Andrzej Kubiczek
!!!END: 2022-01-22
!!!YEC: Copyright 2022 Narodowy Instytut Fryderyka Chopina (https://polishscores.org)
!!!YEM: Licence CC BY 4.0 (https://creativecommons.org/licenses/by/4.0)
